packages/core/assets/Icons/water_alt.svg

<svg viewBox="0 0 20 20" fill="none" xmlns="http://www.w3.org/2000/svg">
<path d="M5.83317 15.7917C5.15261 15.7917 4.61095 15.9445 4.20817 16.25C3.80539 16.5556 3.24289 16.7709 2.52067 16.8959C2.28456 16.9375 2.08317 16.882 1.9165 16.7292C1.74984 16.5764 1.6665 16.382 1.6665 16.1459C1.6665 15.9097 1.74637 15.7118 1.90609 15.5521C2.06581 15.3924 2.26373 15.2778 2.49984 15.2084C2.99984 15.0556 3.47206 14.8438 3.9165 14.5729C4.36095 14.3021 4.99984 14.1667 5.83317 14.1667C6.36095 14.1667 6.79498 14.2257 7.13525 14.3438C7.47553 14.4618 7.7915 14.5938 8.08317 14.7396C8.37484 14.8854 8.6665 15.0209 8.95817 15.1459C9.24984 15.2709 9.59706 15.3334 9.99984 15.3334C10.4026 15.3334 10.7498 15.2709 11.0415 15.1459C11.3332 15.0209 11.6248 14.8854 11.9165 14.7396C12.2082 14.5938 12.5276 14.4618 12.8748 14.3438C13.2221 14.2257 13.6526 14.1667 14.1665 14.1667C14.9998 14.1667 15.6387 14.3021 16.0832 14.5729C16.5276 14.8438 16.9998 15.0556 17.4998 15.2084C17.7359 15.2778 17.9339 15.3924 18.0936 15.5521C18.2533 15.7118 18.3332 15.9097 18.3332 16.1459C18.3332 16.382 18.2498 16.5764 18.0832 16.7292C17.9165 16.882 17.7151 16.9375 17.479 16.8959C16.7568 16.7709 16.1943 16.5556 15.7915 16.25C15.3887 15.9445 14.8471 15.7917 14.1665 15.7917C13.7776 15.7917 13.4408 15.8507 13.1561 15.9688C12.8714 16.0868 12.5866 16.2188 12.3019 16.3646C12.0172 16.5104 11.6978 16.6459 11.3436 16.7709C10.9894 16.8959 10.5415 16.9584 9.99984 16.9584C9.45817 16.9584 9.01025 16.8959 8.65609 16.7709C8.30192 16.6459 7.98248 16.5104 7.69775 16.3646C7.41303 16.2188 7.13178 16.0868 6.854 15.9688C6.57623 15.8507 6.23595 15.7917 5.83317 15.7917ZM5.83317 12.0834C5.15261 12.0834 4.61095 12.2361 4.20817 12.5417C3.80539 12.8472 3.24289 13.0625 2.52067 13.1875C2.28456 13.2292 2.08317 13.1736 1.9165 13.0209C1.74984 12.8681 1.6665 12.6736 1.6665 12.4375C1.6665 12.2014 1.74637 12.0035 1.90609 11.8438C2.06581 11.684 2.26373 11.5695 2.49984 11.5C2.99984 11.3472 3.47206 11.1354 3.9165 10.8646C4.36095 10.5938 4.99984 10.4584 5.83317 10.4584C6.36095 10.4584 6.79498 10.5174 7.13525 10.6354C7.47553 10.7535 7.7915 10.8854 8.08317 11.0313C8.37484 11.1771 8.6665 11.3125 8.95817 11.4375C9.24984 11.5625 9.59706 11.625 9.99984 11.625C10.4026 11.625 10.7498 11.5625 11.0415 11.4375C11.3332 11.3125 11.6248 11.1771 11.9165 11.0313C12.2082 10.8854 12.5276 10.7535 12.8748 10.6354C13.2221 10.5174 13.6526 10.4584 14.1665 10.4584C14.9998 10.4584 15.6387 10.5938 16.0832 10.8646C16.5276 11.1354 16.9998 11.3472 17.4998 11.5C17.7359 11.5695 17.9339 11.684 18.0936 11.8438C18.2533 12.0035 18.3332 12.2014 18.3332 12.4375C18.3332 12.6736 18.2498 12.8681 18.0832 13.0209C17.9165 13.1736 17.7151 13.2292 17.479 13.1875C16.7568 13.0625 16.1943 12.8472 15.7915 12.5417C15.3887 12.2361 14.8471 12.0834 14.1665 12.0834C13.7637 12.0834 13.42 12.1424 13.1353 12.2604C12.8505 12.3785 12.5658 12.5104 12.2811 12.6563C11.9964 12.8021 11.6804 12.9375 11.3332 13.0625C10.9859 13.1875 10.5415 13.25 9.99984 13.25C9.45817 13.25 9.01025 13.1875 8.65609 13.0625C8.30192 12.9375 7.98248 12.8021 7.69775 12.6563C7.41303 12.5104 7.13178 12.3785 6.854 12.2604C6.57623 12.1424 6.23595 12.0834 5.83317 12.0834ZM5.83317 8.37502C5.15261 8.37502 4.61095 8.5278 4.20817 8.83335C3.80539 9.13891 3.24289 9.35419 2.52067 9.47919C2.28456 9.52085 2.08317 9.4653 1.9165 9.31252C1.74984 9.15974 1.6665 8.9653 1.6665 8.72919C1.6665 8.49308 1.74637 8.29516 1.90609 8.13544C2.06581 7.97572 2.26373 7.86113 2.49984 7.79169C2.99984 7.63891 3.47206 7.4271 3.9165 7.15627C4.36095 6.88544 4.99984 6.75002 5.83317 6.75002C6.36095 6.75002 6.79498 6.80905 7.13525 6.9271C7.47553 7.04516 7.7915 7.1771 8.08317 7.32294C8.37484 7.46877 8.6665 7.60419 8.95817 7.72919C9.24984 7.85419 9.59706 7.91669 9.99984 7.91669C10.4026 7.91669 10.7498 7.85419 11.0415 7.72919C11.3332 7.60419 11.6248 7.46877 11.9165 7.32294C12.2082 7.1771 12.5276 7.04516 12.8748 6.9271C13.2221 6.80905 13.6526 6.75002 14.1665 6.75002C14.9998 6.75002 15.6387 6.88544 16.0832 7.15627C16.5276 7.4271 16.9998 7.63891 17.4998 7.79169C17.7359 7.86113 17.9339 7.97572 18.0936 8.13544C18.2533 8.29516 18.3332 8.49308 18.3332 8.72919C18.3332 8.9653 18.2498 9.15974 18.0832 9.31252C17.9165 9.4653 17.7151 9.52085 17.479 9.47919C16.7568 9.35419 16.1943 9.13891 15.7915 8.83335C15.3887 8.5278 14.8471 8.37502 14.1665 8.37502C13.7776 8.37502 13.4408 8.43405 13.1561 8.5521C12.8714 8.67016 12.5866 8.8021 12.3019 8.94794C12.0172 9.09377 11.6978 9.22919 11.3436 9.35419C10.9894 9.47919 10.5415 9.54169 9.99984 9.54169C9.45817 9.54169 9.01025 9.47919 8.65609 9.35419C8.30192 9.22919 7.98248 9.09377 7.69775 8.94794C7.41303 8.8021 7.13178 8.67016 6.854 8.5521C6.57623 8.43405 6.23595 8.37502 5.83317 8.37502ZM5.83317 4.66669C5.15261 4.66669 4.61095 4.81947 4.20817 5.12502C3.80539 5.43058 3.24289 5.64585 2.52067 5.77085C2.28456 5.81252 2.08317 5.75697 1.9165 5.60419C1.74984 5.45141 1.6665 5.25697 1.6665 5.02085C1.6665 4.78474 1.74637 4.58683 1.90609 4.4271C2.06581 4.26738 2.26373 4.1528 2.49984 4.08335C2.99984 3.93058 3.47206 3.71877 3.9165 3.44794C4.36095 3.1771 4.99984 3.04169 5.83317 3.04169C6.36095 3.04169 6.79498 3.10071 7.13525 3.21877C7.47553 3.33683 7.7915 3.46877 8.08317 3.6146C8.37484 3.76044 8.6665 3.89585 8.95817 4.02085C9.24984 4.14585 9.59706 4.20835 9.99984 4.20835C10.4026 4.20835 10.7498 4.14585 11.0415 4.02085C11.3332 3.89585 11.6248 3.76044 11.9165 3.6146C12.2082 3.46877 12.5276 3.33683 12.8748 3.21877C13.2221 3.10071 13.6526 3.04169 14.1665 3.04169C14.9998 3.04169 15.6387 3.1771 16.0832 3.44794C16.5276 3.71877 16.9998 3.93058 17.4998 4.08335C17.7359 4.1528 17.9339 4.26738 18.0936 4.4271C18.2533 4.58683 18.3332 4.78474 18.3332 5.02085C18.3332 5.25697 18.2498 5.45141 18.0832 5.60419C17.9165 5.75697 17.7151 5.81252 17.479 5.77085C16.7568 5.64585 16.1943 5.43058 15.7915 5.12502C15.3887 4.81947 14.8471 4.66669 14.1665 4.66669C13.7776 4.66669 13.4408 4.72572 13.1561 4.84377C12.8714 4.96183 12.5866 5.09377 12.3019 5.2396C12.0172 5.38544 11.6978 5.52085 11.3436 5.64585C10.9894 5.77085 10.5415 5.83335 9.99984 5.83335C9.45817 5.83335 9.01025 5.77085 8.65609 5.64585C8.30192 5.52085 7.98248 5.38544 7.69775 5.2396C7.41303 5.09377 7.13178 4.96183 6.854 4.84377C6.57623 4.72572 6.23595 4.66669 5.83317 4.66669Z" fill="currentColor"/>
</svg>

<svg xmlns="http://www.w3.org/2000/svg" width="20" height="20" fill="none" viewBox="0 0 20 20">
  <path fill="#201F1F" d="M5.833 15.792c-.68 0-1.222.152-1.625.458-.403.306-.965.52-1.687.646a.674.674 0 0 1-.604-.167.757.757 0 0 1-.25-.583c0-.236.08-.434.24-.594.159-.16.357-.274.593-.344.5-.152.972-.364 1.417-.635.444-.27 1.083-.406 1.916-.406.528 0 .962.059 1.302.177.34.118.657.25.948.396.292.145.583.28.875.406.292.125.64.187 1.042.187.403 0 .75-.062 1.041-.187.292-.125.584-.26.875-.406.292-.146.612-.278.959-.396s.778-.177 1.291-.177c.834 0 1.473.135 1.917.406.445.27.917.483 1.417.635.236.07.434.184.594.344.16.16.24.358.24.594s-.084.43-.25.583a.675.675 0 0 1-.605.167c-.722-.125-1.285-.34-1.688-.646-.402-.306-.944-.458-1.625-.458-.388 0-.725.059-1.01.177-.285.118-.57.25-.854.396a7.8 7.8 0 0 1-.958.406c-.355.125-.803.187-1.344.187-.542 0-.99-.062-1.344-.187a7.804 7.804 0 0 1-.958-.406 13.03 13.03 0 0 0-.844-.396c-.278-.118-.618-.177-1.02-.177Zm0-3.709c-.68 0-1.222.153-1.625.459-.403.305-.965.52-1.687.646a.674.674 0 0 1-.604-.167.757.757 0 0 1-.25-.584c0-.236.08-.433.24-.593.159-.16.357-.274.593-.344.5-.153.972-.365 1.417-.635.444-.271 1.083-.407 1.916-.407.528 0 .962.06 1.302.177.34.119.657.25.948.396.292.146.583.281.875.406.292.126.64.188 1.042.188.403 0 .75-.063 1.041-.188.292-.124.584-.26.875-.406.292-.146.612-.277.959-.396.347-.118.778-.177 1.291-.177.834 0 1.473.136 1.917.407.445.27.917.482 1.417.635.236.07.434.184.594.344.16.16.24.357.24.594 0 .236-.084.43-.25.583a.674.674 0 0 1-.605.166c-.722-.124-1.285-.34-1.688-.645-.402-.306-.944-.459-1.625-.459-.402 0-.746.06-1.03.177-.285.119-.57.25-.855.396-.285.146-.6.281-.948.406-.347.126-.792.188-1.333.188-.542 0-.99-.063-1.344-.188a7.805 7.805 0 0 1-.958-.406 13.033 13.033 0 0 0-.844-.396c-.278-.118-.618-.177-1.02-.177Zm0-3.708c-.68 0-1.222.153-1.625.458-.403.306-.965.521-1.687.646a.674.674 0 0 1-.604-.166.757.757 0 0 1-.25-.584c0-.236.08-.434.24-.594.159-.16.357-.274.593-.343.5-.153.972-.365 1.417-.636C4.36 6.886 5 6.75 5.832 6.75c.528 0 .962.06 1.302.177.34.118.657.25.948.396.292.146.583.281.875.406.292.125.64.188 1.042.188.403 0 .75-.063 1.041-.188.292-.125.584-.26.875-.406.292-.146.612-.278.959-.396s.778-.177 1.291-.177c.834 0 1.473.135 1.917.406.445.271.917.483 1.417.636.236.07.434.184.594.343.16.16.24.358.24.594s-.084.43-.25.584a.674.674 0 0 1-.605.166c-.722-.125-1.285-.34-1.688-.646-.402-.305-.944-.458-1.625-.458-.388 0-.725.059-1.01.177-.285.118-.57.25-.854.396a7.795 7.795 0 0 1-.958.406c-.355.125-.803.188-1.344.188-.542 0-.99-.063-1.344-.188a7.8 7.8 0 0 1-.958-.406 13.042 13.042 0 0 0-.844-.396c-.278-.118-.618-.177-1.02-.177Zm0-3.708c-.68 0-1.222.152-1.625.458-.403.306-.965.52-1.687.646a.674.674 0 0 1-.604-.167.757.757 0 0 1-.25-.583c0-.236.08-.434.24-.594.159-.16.357-.274.593-.344.5-.152.972-.364 1.417-.635.444-.27 1.083-.406 1.916-.406.528 0 .962.059 1.302.177.34.118.657.25.948.396.292.145.583.28.875.406.292.125.64.187 1.042.187.403 0 .75-.062 1.041-.187.292-.125.584-.26.875-.406a7.65 7.65 0 0 1 .959-.396c.347-.118.778-.177 1.291-.177.834 0 1.473.135 1.917.406.445.27.917.483 1.417.635.236.07.434.184.594.344.16.16.24.358.24.594s-.084.43-.25.583a.674.674 0 0 1-.605.167c-.722-.125-1.285-.34-1.688-.646-.402-.306-.944-.458-1.625-.458-.388 0-.725.059-1.01.177-.285.118-.57.25-.854.396a7.794 7.794 0 0 1-.958.406c-.355.125-.803.187-1.344.187-.542 0-.99-.062-1.344-.187a7.798 7.798 0 0 1-.958-.406 13.047 13.047 0 0 0-.844-.396c-.278-.118-.618-.177-1.02-.177Z"/>
</svg>
